packages/core/src/svgs/mmy.svg

<svg width="24" height="24" viewBox="0 0 24 24" fill="none" xmlns="http://www.w3.org/2000/svg">
<g clip-path="url(#clip0_31_14035)">
<path d="M0 0H24V24H0V0Z" fill="#101233"/>
<path d="M9.7928 17.9229C9.7928 17.9229 10.5471 17.4215 12.1585 17.4215C13.7657 17.4215 14.5199 17.9229 14.5199 17.9229C14.5199 17.9229 14.3014 18.1972 14.0357 18.2743C13.7699 18.36 13.4185 18.2829 12.9771 18.5872C12.5357 18.8872 12.1585 18.8572 12.1585 18.8572C12.1585 18.8572 11.7771 18.8872 11.3357 18.5872C10.8985 18.2829 10.5428 18.3557 10.2771 18.2743C10.0114 18.1972 9.7928 17.9229 9.7928 17.9229ZM11.5971 6.99432C11.1385 6.9686 10.4914 7.02003 10.1057 6.88717C9.44137 6.66003 9.33423 6.43289 8.77708 6.54432C8.36565 6.63003 8.26708 6.9386 8.22851 7.25575C9.21851 7.08432 9.78851 7.30717 9.78851 7.30717C8.36137 7.45289 7.88137 7.82574 7.85137 7.85146C7.81361 7.88275 7.78169 7.92047 7.75708 7.96289C7.71423 8.06146 7.74851 8.09146 7.75708 8.28003C9.73708 7.69717 11.3142 8.10432 11.3142 8.10432C9.90693 8.10527 8.51602 8.40624 7.23423 8.98717L7.4228 9.63003C8.60994 9.21432 9.27851 9.51003 9.27851 9.51003C8.57137 9.67717 7.88565 9.93432 7.24708 10.2729L7.36708 10.5729C7.0928 10.7743 6.86565 11.5372 6.86565 11.5372C6.79708 11.1257 7.06708 10.5557 7.06708 10.5557C6.50994 10.59 6.29565 11.1043 6.29565 11.5286C6.29565 11.9572 6.5828 12.4415 6.92565 12.7543C7.26851 13.0672 7.34565 13.4143 7.34565 13.4143C7.6028 12.7286 7.10137 12.6686 7.23851 11.85C7.37565 11.0357 8.39137 10.5986 8.39137 10.5986C8.18137 10.5557 7.97137 10.5215 7.75708 10.5129C8.19423 10.4443 8.49851 9.76717 11.2028 11.4686C13.9071 13.1743 15.5828 11.4515 16.4828 10.9286C16.7485 11.1429 17.0271 11.4515 17.0957 11.85C17.2328 12.6686 16.7271 12.7243 16.9885 13.4143C16.9885 13.4143 17.0657 13.0715 17.4085 12.7543C17.7514 12.4415 18.0385 11.9572 18.0385 11.5286C18.0385 11.1 17.8242 10.5857 17.2671 10.5557C17.2671 10.5557 17.5371 11.1257 17.4685 11.5415C17.4685 11.5415 17.2328 10.7443 16.9542 10.5557L17.0999 10.1957L16.9628 10.0972C15.0342 8.96574 12.1585 9.0086 12.1585 9.0086C14.9442 8.77289 16.9157 9.64289 16.9157 9.64289L17.0785 8.98717L16.5728 8.75146C16.5728 8.75146 16.5942 8.28003 16.5128 8.1086C16.4657 8.01003 16.3199 7.91146 16.2128 7.84717C15.1628 7.40146 13.3585 7.30717 13.3585 7.30717C14.9657 7.16146 15.7628 7.25575 16.0842 7.32003C16.0285 6.99432 15.8828 6.50575 15.5228 6.43717C15.3423 6.39038 15.1523 6.39483 14.9742 6.45003C14.8354 6.28808 14.6588 6.16294 14.4599 6.08574C14.1685 6.00003 13.7742 6.08146 13.2899 5.74289C12.8057 5.4086 12.3857 5.44289 12.3857 5.44289C12.3857 5.44289 11.9657 5.4086 11.4814 5.74289C10.9928 6.08146 10.6028 6.00003 10.3114 6.08574C10.0199 6.17574 9.77565 6.47146 9.77565 6.47146C9.77565 6.47146 10.3628 6.86574 11.5971 6.99432Z" fill="#03F5AE"/>
<path d="M12.1587 17.1601C12.1587 17.1601 10.7872 17.1643 10.1229 17.3915C9.45866 17.6186 9.35152 17.8501 8.79438 17.7343C8.38295 17.6486 8.29723 17.3015 8.25866 16.9843C9.24438 17.1558 9.78866 16.8643 9.78866 16.8643C8.36152 16.7186 7.88152 16.3458 7.85152 16.3201C7.81337 16.2875 7.78142 16.2483 7.75723 16.2043C7.71438 16.1101 7.72723 16.0458 7.7358 15.8615C9.7158 16.4443 11.3144 16.0672 11.3144 16.0672C9.90708 16.0662 8.51617 15.7653 7.23438 15.1843L7.43152 14.4686C8.6658 14.7686 9.27437 14.6615 9.27437 14.6615C8.56728 14.4955 7.88452 14.2391 7.24295 13.8986L7.40152 13.5215C9.39866 14.3101 14.9101 14.3101 16.9115 13.5215L17.1001 13.9758L16.9629 14.0701C15.0344 15.2058 12.1587 15.1629 12.1587 15.1629C14.9444 15.4029 16.9158 14.5286 16.9158 14.5286L17.0787 15.1843L16.5729 15.4201C16.5729 15.4201 16.6372 16.0329 16.5558 16.2043C16.5044 16.3072 16.3629 16.4058 16.2558 16.4701C15.2058 16.9158 13.3587 16.8643 13.3587 16.8643C14.9658 17.0101 15.7501 17.0229 16.0715 16.9629C16.0158 17.2886 15.8872 17.6615 15.5229 17.7343C14.9658 17.8501 14.8544 17.6229 14.1944 17.3915C13.5301 17.1643 12.1587 17.1601 12.1587 17.1601Z" fill="#03F5AE"/>
<path d="M9.17139 11.9355C9.17139 11.9355 8.91425 12.5313 9.41568 12.767C9.91711 13.007 11.1728 12.887 11.1728 12.887C11.1728 12.887 10.0842 12.107 9.17139 11.9355ZM15.4028 12.5484C15.4028 12.5484 15.5014 13.0413 15.0771 13.1484C14.6571 13.2513 13.7142 12.9641 13.7142 12.9641C13.7142 12.9641 14.6785 12.5355 15.4028 12.5484Z" fill="white"/>
<path d="M17.1944 9.01721C17.1944 9.01721 18.5658 9.07721 19.1486 9.39436C19.6544 9.66436 20.1429 10.2944 20.1429 10.2944C20.1429 10.2944 19.4229 10.5129 19.2001 10.7658C18.9944 11.0015 18.9515 11.1086 18.9515 11.1086C18.9515 11.1086 18.0001 10.0715 17.0401 9.68578L17.1944 9.0215V9.01721ZM15.6129 17.6401C15.6129 17.6401 16.0844 18.0429 16.5086 18.1586C16.8729 18.2572 17.4001 18.1886 17.4001 18.1886C17.4001 18.1886 17.1729 17.7601 17.1901 17.5458C17.2072 17.3401 17.2415 17.2715 17.2415 17.2715C16.8386 17.2201 16.4444 17.1129 16.0715 16.9629L15.6129 17.6401ZM7.14007 13.4358C7.14007 13.4358 6.84007 14.0444 6.15864 14.2201C5.56721 14.3744 4.71436 14.2629 4.71436 14.2629C4.71436 14.2629 5.08293 13.6158 5.05721 13.2815C5.02721 12.9772 4.97578 12.8701 4.97578 12.8701C4.97578 12.8701 6.18436 13.2429 6.7415 12.8572L7.14007 13.4358ZM9.7115 6.41578C9.7115 6.41578 9.18007 6.03864 8.9615 5.64436C8.77293 5.3015 8.73007 4.7615 8.73007 4.7615C8.73007 4.7615 9.2315 4.89007 9.45864 4.82578C9.67293 4.7615 9.73721 4.71436 9.73721 4.71436C9.73721 4.71436 9.64721 5.51578 10.0586 6.0815L9.71578 6.41578H9.7115Z" fill="#03F5AE"/>
</g>
<defs>
<clipPath id="clip0_31_14035">
<rect width="24" height="24" fill="white"/>
</clipPath>
</defs>
</svg>

<svg xmlns="http://www.w3.org/2000/svg" width="24" height="24" fill="none" viewBox="0 0 24 24"><g clip-path="url(#a)"><path fill="#101233" d="M0 0h24v24H0z"/><path fill="#03F5AE" d="M9.793 17.923s.754-.501 2.366-.501c1.607 0 2.36.5 2.36.5s-.218.275-.483.352c-.266.086-.617.009-1.059.313-.441.3-.819.27-.819.27s-.38.03-.822-.27c-.437-.304-.793-.231-1.059-.313-.266-.077-.484-.351-.484-.351m1.804-10.929c-.458-.025-1.106.026-1.491-.107-.665-.227-.772-.454-1.329-.343-.411.086-.51.395-.548.712.99-.172 1.56.051 1.56.051-1.428.146-1.908.519-1.938.544a.4.4 0 0 0-.094.112c-.043.098-.008.128 0 .317 1.98-.583 3.557-.176 3.557-.176a9.9 9.9 0 0 0-4.08.883l.189.643c1.187-.416 1.856-.12 1.856-.12a8.5 8.5 0 0 0-2.032.763l.12.3c-.274.201-.501.964-.501.964-.069-.411.201-.981.201-.981-.557.034-.771.548-.771.973 0 .428.287.912.63 1.225s.42.66.42.66c.257-.685-.245-.745-.107-1.564.137-.814 1.152-1.251 1.152-1.251a4 4 0 0 0-.634-.086c.437-.069.742-.746 3.446.956 2.704 1.705 4.38-.018 5.28-.54.265.214.544.522.613.921.137.819-.369.874-.108 1.564 0 0 .078-.342.42-.66.343-.312.63-.797.63-1.225s-.214-.943-.77-.973c0 0 .27.57.2.986 0 0-.235-.798-.514-.986l.146-.36-.137-.099c-1.929-1.131-4.805-1.088-4.805-1.088 2.786-.236 4.758.634 4.758.634l.162-.656-.505-.236s.021-.471-.06-.642c-.047-.099-.193-.198-.3-.262-1.05-.446-2.855-.54-2.855-.54 1.608-.146 2.405-.051 2.726.013-.055-.326-.201-.814-.561-.883a1 1 0 0 0-.549.013 1.3 1.3 0 0 0-.514-.364c-.292-.086-.686-.005-1.17-.343-.484-.334-.904-.3-.904-.3s-.42-.034-.905.3c-.488.338-.878.257-1.17.343-.291.09-.535.385-.535.385s.587.395 1.821.523"/><path fill="#03F5AE" d="M12.159 17.16s-1.372.004-2.036.232c-.664.227-.771.458-1.329.342-.411-.085-.497-.433-.535-.75.985.172 1.53-.12 1.53-.12-1.427-.145-1.907-.518-1.937-.544a.4.4 0 0 1-.095-.116c-.043-.094-.03-.158-.021-.343 1.98.583 3.578.206 3.578.206a9.9 9.9 0 0 1-4.08-.883l.198-.715c1.234.3 1.842.193 1.842.193a8.5 8.5 0 0 1-2.031-.763l.159-.377c1.997.788 7.508.788 9.51 0l.188.454-.137.094c-1.929 1.136-4.804 1.093-4.804 1.093 2.785.24 4.757-.634 4.757-.634l.163.655-.506.236s.064.613-.017.784c-.052.103-.193.202-.3.266-1.05.446-2.897.394-2.897.394 1.607.146 2.391.159 2.713.099-.056.326-.185.698-.55.771-.556.116-.668-.111-1.328-.343-.664-.227-2.035-.23-2.035-.23"/><path fill="#fff" d="M9.171 11.936s-.257.595.245.831c.501.24 1.757.12 1.757.12s-1.089-.78-2.002-.952m6.232.612s.098.493-.326.6c-.42.103-1.363-.184-1.363-.184s.964-.428 1.689-.416"/><path fill="#03F5AE" d="M17.194 9.017s1.372.06 1.955.377c.505.27.994.9.994.9s-.72.219-.943.472c-.206.236-.248.343-.248.343S18 10.072 17.04 9.686l.154-.665zm-1.581 8.623s.471.403.896.519c.364.098.891.03.891.03s-.227-.429-.21-.643a.9.9 0 0 1 .051-.274 4.8 4.8 0 0 1-1.17-.31zM7.14 13.436s-.3.608-.981.784c-.592.154-1.445.043-1.445.043s.369-.647.343-.982c-.03-.304-.081-.41-.081-.41s1.208.372 1.766-.014zm2.571-7.02s-.53-.377-.75-.772c-.188-.343-.23-.883-.23-.883s.5.13.728.065c.214-.064.278-.112.278-.112s-.09.802.322 1.367l-.343.335z"/></g><defs><clipPath id="a"><path fill="#fff" d="M0 0h24v24H0z"/></clipPath></defs></svg>
